src/asset/img/unsorted/shapes/11.svg

<svg height="23.9" width="63.4" xmlns="http://www.w3.org/2000/svg"><g fill-rule="evenodd"><path d="M60.75 3.8h.05q.85-.15 1.6.35.7.45.95 1.3v.05q.2.85-.25 1.6-1.85 3.2-4.75 5.3l-.05.05h-.05l-.65.4 1.25 1.05h.05l.15.2q2.6 2.75 4.05 6.85v-.05q.3.8 0 1.6-.35.8-1.1 1.2l-1.55.15-5.6-1.2-.2-.05-5.3-1.05h.05l-.3-.1-.4-.1q-4-1.05-8.05-2.6-8.45-3.2-12.2-3.55-1.45-.15-3.25.05l-5.85 1.25-.15.05q-6.2 1.9-8.5 1.5-4.55-.65-7.75-3.5l-.15-.15-.1-.05-.2-.2-.05-.05-.45-.8L.15 8v.05q-.25-.7-.1-1.35v-.05l1.05-3.7q.2-.7.75-1.15v.05L3.1 1.3h.05q.7 0 1.35.4h-.05q3.25 2 4.85 2.25 1.7.1 5.65-1.2l.15-.05Q20.45.9 24.55.3h.05l4.05-.3Q34.6 0 42.3 2.2q5.35 1.5 9.7 2.1h.2l8.55-.5" fill="#144670"/><path d="M20.15-6.65h.15l8.95-.55.9.2.5.75-.1.9Q28.8-2.3 26.1-.4l-.1.05-1.95 1.1 2.5 2 .1.05q2.45 2.65 3.8 6.5v.9l-.6.65-.85.1-5.7-1.2V9.7l-5.4-1.1-.25-.05-.4-.1Q13.3 7.4 9.3 5.85.65 2.6-3.15 2.25-4.7 2.1-6.6 2.3q-2.8.35-6.25 1.35h.05q-5.9 1.8-8.1 1.45-4.3-.6-7.3-3.35l-.1-.05-.2-.2-.25-.45-1.85-5.3-.05-.75 1-3.7.45-.65q.3-.25.7-.3l.75.25Q-24.3-7.2-22.5-7q1.9.15 6.2-1.3 5.3-1.8 9.3-2.35l3.95-.3q5.8 0 13.35 2.15 5.45 1.55 9.85 2.15m2.15 8.1.3-.15-.1-.05-.15.15-.05.05M22.75 0l-.05-.05.05.05" fill="url(#a)" transform="translate(31.7 11.95)"/><path d="m20.1-5.4 9.35-.55Q27.85-3.2 25.4-1.4 23.15-.1 21.35.4h.2l-.35.3.05.05h.1q.75.3 1.55.75l2.85 2.15q2.3 2.45 3.55 6.05l-5.8-1.2-5.35-1.1-.6-.2L9.7 4.65Q.9 1.4-3.05 1.05-4.7.85-6.8 1.1q-2.9.35-6.4 1.35-5.5 1.65-7.5 1.4-3.95-.5-6.65-2.95l-.25-.25-1.85-5.3 1-3.75q3.85 2.45 5.85 2.65 2 .25 6.7-1.4 5.15-1.7 9.1-2.3l3.75-.2q5.7-.05 13 2.05 5.6 1.55 10.1 2.2h.05m.85.5-.2-.15.15.15h.05m-.3 5.6v.15h.25L20.65.7" fill="url(#b)" transform="translate(31.7 11.95)"/><path d="m20.65.7.25.15h-.25V.7" fill="url(#c)" transform="translate(31.7 11.95)"/></g><defs><linearGradient gradientTransform="matrix(.029 .013 .0022 -.0123 -4.35 31.2)" gradientUnits="userSpaceOnUse" id="a" spreadMethod="pad" x1="-819.2" x2="819.2"><stop offset="0" stop-color="#0280fd"/><stop offset=".212" stop-color="#b2d7fc"/><stop offset=".588" stop-color="#047bf2"/><stop offset=".792" stop-color="#68aff7"/><stop offset="1" stop-color="#3899d8"/></linearGradient><linearGradient gradientTransform="matrix(.029 .013 .0022 -.0123 -.4 3.4)" gradientUnits="userSpaceOnUse" id="b" spreadMethod="pad" x1="-819.2" x2="819.2"><stop offset="0" stop-color="#c4e1ff"/><stop offset=".192" stop-color="#fff"/><stop offset=".565" stop-color="#92c9fe"/><stop offset=".725" stop-color="#fff"/><stop offset="1" stop-color="#b8d6f1"/></linearGradient><linearGradient gradientTransform="matrix(.0291 .0108 .002 -.0099 -.9 1.3)" gradientUnits="userSpaceOnUse" id="c" spreadMethod="pad" x1="-819.2" x2="819.2"><stop offset="0" stop-color="#c4e1ff"/><stop offset=".192" stop-color="#fff"/><stop offset=".565" stop-color="#92c9fe"/><stop offset=".725" stop-color="#fff"/><stop offset="1" stop-color="#b8d6f1"/></linearGradient></defs></svg>

<?xml version="1.0" encoding="UTF-8" standalone="no"?>
<svg xmlns:xlink="http://www.w3.org/1999/xlink" height="23.9px" width="63.4px" xmlns="http://www.w3.org/2000/svg">
  <g transform="matrix(1.0, 0.0, 0.0, 1.0, 31.7, 11.95)">
    <path d="M29.05 -8.15 L29.1 -8.15 Q29.95 -8.3 30.7 -7.8 31.4 -7.35 31.65 -6.5 L31.65 -6.45 Q31.85 -5.6 31.4 -4.85 29.55 -1.65 26.65 0.45 L26.6 0.5 26.55 0.5 25.9 0.9 27.15 1.95 27.2 1.95 27.35 2.15 Q29.95 4.9 31.4 9.0 L31.4 8.95 Q31.7 9.75 31.4 10.55 31.05 11.35 30.3 11.75 L28.75 11.9 23.15 10.7 22.95 10.65 17.65 9.6 17.7 9.6 17.4 9.5 17.0 9.4 Q13.0 8.35 8.95 6.8 0.5 3.6 -3.25 3.25 -4.7 3.1 -6.5 3.3 L-12.35 4.55 -12.5 4.6 Q-18.7 6.5 -21.0 6.1 -25.55 5.45 -28.75 2.6 L-28.9 2.45 -29.0 2.4 -29.2 2.2 -29.25 2.15 -29.7 1.35 -31.55 -3.95 -31.55 -3.9 Q-31.8 -4.6 -31.65 -5.25 L-31.65 -5.3 -30.6 -9.0 Q-30.4 -9.7 -29.85 -10.15 L-29.85 -10.1 -28.6 -10.65 -28.55 -10.65 Q-27.85 -10.65 -27.2 -10.25 L-27.25 -10.25 Q-24.0 -8.25 -22.4 -8.0 -20.7 -7.9 -16.75 -9.2 L-16.6 -9.25 Q-11.25 -11.05 -7.15 -11.65 L-7.1 -11.65 -3.05 -11.95 Q2.9 -11.95 10.6 -9.75 15.95 -8.25 20.3 -7.65 L20.5 -7.65 29.05 -8.15" fill="#144670" fill-rule="evenodd" stroke="none"/>
    <path d="M20.15 -6.65 L20.3 -6.65 29.25 -7.2 30.15 -7.0 30.65 -6.25 30.55 -5.35 Q28.8 -2.3 26.1 -0.4 L26.0 -0.35 24.05 0.75 26.55 2.75 26.65 2.8 Q29.1 5.45 30.45 9.3 L30.45 10.2 29.85 10.85 29.0 10.95 23.3 9.75 23.3 9.7 17.9 8.6 17.65 8.55 17.25 8.45 Q13.3 7.4 9.3 5.85 0.65 2.6 -3.15 2.25 -4.7 2.1 -6.6 2.3 -9.4 2.65 -12.85 3.65 L-12.8 3.65 Q-18.7 5.45 -20.9 5.1 -25.2 4.5 -28.2 1.75 L-28.3 1.7 -28.5 1.5 -28.75 1.05 -30.6 -4.25 -30.65 -5.0 -29.65 -8.7 -29.2 -9.35 Q-28.9 -9.6 -28.5 -9.65 L-27.75 -9.4 Q-24.3 -7.2 -22.5 -7.0 -20.6 -6.85 -16.3 -8.3 -11.0 -10.1 -7.0 -10.65 L-3.05 -10.95 Q2.75 -10.95 10.3 -8.8 15.75 -7.25 20.15 -6.65 M22.3 1.45 L22.6 1.3 22.5 1.25 22.35 1.4 22.3 1.45 M22.75 0.0 L22.7 -0.05 22.75 0.0" fill="url(#gradient0)" fill-rule="evenodd" stroke="none"/>
    <path d="M20.1 -5.4 L29.45 -5.95 Q27.85 -3.2 25.4 -1.4 23.15 -0.1 21.35 0.4 L21.55 0.4 21.2 0.7 21.25 0.75 21.35 0.75 Q22.1 1.05 22.9 1.5 L25.75 3.65 Q28.05 6.1 29.3 9.7 L23.5 8.5 18.15 7.4 17.55 7.2 9.7 4.65 Q0.9 1.4 -3.05 1.05 -4.7 0.85 -6.8 1.1 -9.7 1.45 -13.2 2.45 -18.7 4.1 -20.7 3.85 -24.65 3.35 -27.35 0.9 L-27.6 0.65 -29.45 -4.65 -28.45 -8.4 Q-24.6 -5.95 -22.6 -5.75 -20.6 -5.5 -15.9 -7.15 -10.75 -8.85 -6.8 -9.45 L-3.05 -9.65 Q2.65 -9.7 9.95 -7.6 15.55 -6.05 20.05 -5.4 L20.1 -5.4 M20.95 -4.9 L20.75 -5.05 20.9 -4.9 20.95 -4.9 M20.65 0.7 L20.65 0.85 20.9 0.85 20.65 0.7" fill="url(#gradient1)" fill-rule="evenodd" stroke="none"/>
    <path d="M20.65 0.7 L20.9 0.85 20.65 0.85 20.65 0.7" fill="url(#gradient2)" fill-rule="evenodd" stroke="none"/>
  </g>
  <defs>
    <linearGradient gradientTransform="matrix(0.029, 0.013, 0.0022, -0.0123, -4.35, 31.2)" gradientUnits="userSpaceOnUse" id="gradient0" spreadMethod="pad" x1="-819.2" x2="819.2">
      <stop offset="0.0" stop-color="#0280fd"/>
      <stop offset="0.21176470588235294" stop-color="#b2d7fc"/>
      <stop offset="0.5882352941176471" stop-color="#047bf2"/>
      <stop offset="0.792156862745098" stop-color="#68aff7"/>
      <stop offset="1.0" stop-color="#3899d8"/>
    </linearGradient>
    <linearGradient gradientTransform="matrix(0.029, 0.013, 0.0022, -0.0123, -0.4, 3.4)" gradientUnits="userSpaceOnUse" id="gradient1" spreadMethod="pad" x1="-819.2" x2="819.2">
      <stop offset="0.0" stop-color="#c4e1ff"/>
      <stop offset="0.19215686274509805" stop-color="#ffffff"/>
      <stop offset="0.5647058823529412" stop-color="#92c9fe"/>
      <stop offset="0.7254901960784313" stop-color="#ffffff"/>
      <stop offset="1.0" stop-color="#b8d6f1"/>
    </linearGradient>
    <linearGradient gradientTransform="matrix(0.0291, 0.0108, 0.002, -0.0099, -0.9, 1.3)" gradientUnits="userSpaceOnUse" id="gradient2" spreadMethod="pad" x1="-819.2" x2="819.2">
      <stop offset="0.0" stop-color="#c4e1ff"/>
      <stop offset="0.19215686274509805" stop-color="#ffffff"/>
      <stop offset="0.5647058823529412" stop-color="#92c9fe"/>
      <stop offset="0.7254901960784313" stop-color="#ffffff"/>
      <stop offset="1.0" stop-color="#b8d6f1"/>
    </linearGradient>
  </defs>
</svg>
